!!!OTL: Linggong ge
!!!ARE: Asia, China,ÿZhejiang, Jiande
!! III, 626
!!!SCT: C1619
!!!YEM: Copyright 1995, estate of Helmut Schaffrath.
**kern
*ICvox
*Ivox
!! 3/82+3 metric grouping
!! Mixed meters:  5/8; 4/8
*M5/8
*k[f#]
*G:
{8b
8b
16dd
16ee
4ee
=1
8ee
16dd
16ee
8dd
4b}
=2
{8dd
8b
16dd
16ee
4dd
=3
16ee
16dd
16dd
16b
8b
4r}
=4
*M4/8
{32b
16.b
16gg
16ee
8.ee
16ee
=5
*M5/8
8dd
8ee
16ee
16dd
4b}
=6
*M4/8
{16dd
16b
16dd
16ee
4dd
=7
*M5/8
8dd
16dd
16b
8b
4r}
=8
{8b
8b
16gg
16ee
8.ee
16ee
=9
8dd
8ee
16ee
16dd
4b}
=10
{16dd
16b
16dd
16ee
16ee
16ee
=11
16ee
16dd
16dd
16b
8b
4r}
==
!!!AGN: Shange. Suku
!!!AMT: irregular
!!!AIN: vox
!!!EED: Helmut Schaffrath
!!!EEV: 1.0
*-
